; generated by Slic3r 0.8.4 on 2012-09-01 at 11:26:13

; layer_height = .25
; perimeters = 2
; solid_layers = 2
; fill_density = .25
; nozzle_diameter = .35
; filament_diameter = 1.75
; extrusion_multiplier = 1
; perimeter_speed = 30
; infill_speed = 60
; travel_speed = 120
; scale = 1
; single wall width = 0.39mm

M190 S80 ; wait for bed temperature to be reached
M104 S185 ; set temperature

M109 S185 ; wait for temperature to be reached
G90 ; use absolute coordinates
G21 ; set units to millimeters
G92 E0 ; reset extrusion distance
M82 ; use absolute distances for extrusion
G1 Z0.250 F7200.000
G1 X36.047 Y79.480
G1 F1200.000 E1.00000
G1 X36.227 Y79.290 F1800.000 E1.01047
G1 X36.617 Y78.930 E1.03170
G1 X37.027 Y78.610 E1.05250
G1 X37.697 Y78.190 E1.08413
G1 X38.417 Y77.860 E1.11581
G1 X38.917 Y77.690 E1.13694
G1 X39.427 Y77.560 E1.15799
G1 X39.947 Y77.470 E1.17910
G1 X40.207 Y77.440 E1.18957
G1 X40.737 Y77.420 E1.21078
G1 X158.557 Y77.440 E5.92358
G1 X159.077 Y77.510 E5.94457
G1 X159.597 Y77.620 E5.96583
G1 X160.107 Y77.770 E5.98710
G1 X160.597 Y77.960 E6.00812
G1 X160.837 Y78.070 E6.01868
G1 X161.527 Y78.470 E6.05058
G1 X161.947 Y78.770 E6.07123
G1 X162.547 Y79.300 E6.10325
G1 X162.727 Y79.490 E6.11372
G1 X163.067 Y79.890 E6.13472
G1 X163.377 Y80.320 E6.15592
G1 X164.427 Y82.230 E6.24310
G1 X164.687 Y82.770 E6.26708
G1 X164.977 Y83.630 E6.30338
G1 X165.477 Y85.590 E6.38429
G1 X165.537 Y85.910 E6.39731
G1 X165.607 Y86.560 E6.42346
G1 X165.607 Y88.880 E6.51626
G1 X165.587 Y89.190 E6.52869
G1 X165.497 Y89.790 E6.55296
G1 X164.957 Y92.040 E6.64551
G1 X164.747 Y92.630 E6.67057
G1 X163.577 Y94.900 E6.77272
G1 X163.237 Y95.410 E6.79723
G1 X163.057 Y95.650 E6.80923
G1 X161.457 Y97.450 E6.90557
G1 X161.217 Y97.680 E6.91886
G1 X160.717 Y98.100 E6.94498
G1 X159.037 Y99.230 E7.02597
G1 X158.257 Y99.670 E7.06179
G1 X112.637 Y121.550 E9.08562
G1 X111.917 Y121.840 E9.11667
G1 X110.697 Y122.240 E9.16802
G1 X110.397 Y122.320 E9.18044
G1 X109.797 Y122.430 E9.20484
G1 X108.187 Y122.560 E9.26945
G1 X107.497 Y122.550 E9.29705
G1 X106.807 Y122.460 E9.32489
G1 X42.197 Y110.240 E11.95511
G1 X40.277 Y109.740 E12.03447
G1 X39.677 Y109.520 E12.06003
G1 X39.387 Y109.390 E12.07274
G1 X37.207 Y108.170 E12.17267
G1 X36.767 Y107.850 E12.19443
G1 X36.347 Y107.490 E12.21656
G1 X36.157 Y107.300 E12.22731
G1 X35.627 Y106.680 E12.25993
G1 X35.317 Y106.230 E12.28179
G1 X35.177 Y105.990 E12.29290
G1 X34.827 Y105.250 E12.32565
G1 X34.727 Y105.000 E12.33642
G1 X34.567 Y104.480 E12.35818
G1 X34.457 Y103.950 E12.37983
G1 X34.387 Y103.400 E12.40201
G1 X34.357 Y102.860 E12.42364
G1 X34.377 Y83.270 E13.20724
G1 X34.447 Y82.750 E13.22823
G1 X34.557 Y82.230 E13.24949
G1 X34.707 Y81.730 E13.27037
G1 X34.897 Y81.240 E13.29139
G1 X35.127 Y80.760 E13.31268
G1 X35.397 Y80.310 E13.33368
G1 X35.547 Y80.090 E13.34433
G1 X35.867 Y79.680 E13.36513
G1 X36.008 Y79.524 E13.37353
G1 F1200.000 E12.37353
G92 E0
G1 X43.503 Y95.045 F7200.000
G1 F1200.000 E1.00000
G1 X44.107 Y94.809 F1800.000 E1.02594
G1 X44.751 Y94.736 E1.05188
G1 X44.972 Y94.768 E1.06079
G1 X44.972 Y94.650 E1.06553
G1 X45.989 Y95.086 E1.10980
G1 X46.500 Y95.486 E1.13574
G1 X46.891 Y96.003 E1.16168
G1 X47.137 Y96.603 E1.18762
G1 X47.220 Y97.246 E1.21356
G1 X47.137 Y97.889 E1.23950
G1 X46.987 Y98.254 E1.25527
G1 X46.987 Y98.254 E1.25527
G1 X46.891 Y98.489 E1.26543
G1 X46.500 Y99.006 E1.29137
G1 X45.989 Y99.406 E1.31731
G1 X45.393 Y99.661 E1.34325
G1 X44.751 Y99.756 E1.36919
G1 X44.107 Y99.682 E1.39513
G1 X43.744 Y99.541 E1.41070
G1 X43.744 Y99.541 E1.41070
G1 X43.503 Y99.447 E1.42107
G1 X42.979 Y99.064 E1.44700
G1 X42.574 Y98.563 E1.47280
G1 X42.573 Y98.563 E1.47284
G1 X42.570 Y98.557 E1.47307
G1 X42.570 Y98.557 E1.47307
G1 X42.306 Y97.968 E1.49890
G1 X42.205 Y97.351 E1.52391
G1 X42.205 Y97.141 E1.53234
G1 X42.306 Y96.523 E1.55735
G1 X42.353 Y96.420 E1.56188
G1 X42.353 Y96.420 E1.56188
G1 X42.571 Y95.932 E1.58329
G1 X42.979 Y95.428 E1.60922
G1 X43.455 Y95.080 E1.63280
G1 X43.686 Y95.378 F7200.000
G1 X44.198 Y95.178 F1800.000 E1.65481
G1 X44.745 Y95.116 E1.67682
G1 X44.809 Y95.125 E1.67939
G1 X44.809 Y95.125 E1.67939
G1 X45.290 Y95.196 E1.69883
G1 X45.349 Y95.221 E1.70140
G1 X45.349 Y95.221 E1.70140
G1 X45.795 Y95.413 E1.72084
G1 X46.229 Y95.752 E1.74285
G1 X46.561 Y96.191 E1.76486
G1 X46.769 Y96.700 E1.78687
G1 X46.840 Y97.246 E1.80888
G1 X46.769 Y97.791 E1.83089
G1 X46.561 Y98.301 E1.85290
G1 X46.229 Y98.740 E1.87491
G1 X45.795 Y99.079 E1.89692
G1 X45.290 Y99.295 E1.91893
G1 X44.745 Y99.376 E1.94094
G1 X44.198 Y99.313 E1.96295
G1 X43.686 Y99.113 E1.98496
G1 X43.242 Y98.789 E2.00697
G1 X42.895 Y98.361 E2.02898
G1 X42.817 Y98.186 E2.03667
G1 X42.817 Y98.186 E2.03667
G1 X42.670 Y97.859 E2.05100
G1 X42.582 Y97.320 E2.07282
G1 X42.582 Y97.171 E2.07879
G1 X42.670 Y96.633 E2.10061
G1 X42.895 Y96.131 E2.12262
G1 X43.242 Y95.703 E2.14463
G1 X43.638 Y95.413 E2.16427
G1 F1200.000 E1.16427
G92 E0
G1 X68.752 Y88.735 F7200.000
G1 F1200.000 E1.00000
G1 X68.692 Y88.282 F1800.000 E1.01826
G1 X68.752 Y87.830 E1.03651
G1 X68.926 Y87.408 E1.05477
G1 X69.204 Y87.046 E1.07302
G1 X69.566 Y86.768 E1.09128
G1 X69.988 Y86.593 E1.10953
G1 X70.440 Y86.534 E1.12779
G1 X70.893 Y86.593 E1.14604
G1 X71.314 Y86.768 E1.16430
G1 X71.677 Y87.046 E1.18255
G1 X71.954 Y87.408 E1.20081
G1 X72.129 Y87.830 E1.21906
G1 X72.189 Y88.282 E1.23732
G1 X72.129 Y88.735 E1.25557
G1 X71.954 Y89.156 E1.27383
G1 X71.677 Y89.518 E1.29208
G1 X71.314 Y89.796 E1.31034
G1 X70.893 Y89.971 E1.32859
G1 X70.440 Y90.030 E1.34685
G1 X69.988 Y89.971 E1.36510
G1 X69.566 Y89.796 E1.38336
G1 X69.204 Y89.518 E1.40161
G1 X68.926 Y89.156 E1.41987
G1 X68.774 Y88.789 E1.43576
G1 X69.119 Y88.636 F7200.000
G1 X69.072 Y88.282 F1800.000 E1.45004
G1 X69.119 Y87.928 E1.46433
G1 X69.256 Y87.598 E1.47861
G1 X69.473 Y87.315 E1.49289
G1 X69.756 Y87.097 E1.50718
G1 X70.086 Y86.961 E1.52147
G1 X70.440 Y86.914 E1.53575
G1 X70.794 Y86.961 E1.55004
G1 X71.124 Y87.097 E1.56432
G1 X71.408 Y87.315 E1.57861
G1 X71.625 Y87.598 E1.59289
G1 X71.762 Y87.928 E1.60718
G1 X71.808 Y88.282 E1.62146
G1 X71.762 Y88.636 E1.63575
G1 X71.625 Y88.966 E1.65003
G1 X71.408 Y89.249 E1.66432
G1 X71.124 Y89.467 E1.67860
G1 X70.794 Y89.604 E1.69289
G1 X70.440 Y89.650 E1.70717
G1 X70.086 Y89.604 E1.72146
G1 X69.756 Y89.467 E1.73574
G1 X69.473 Y89.249 E1.75003
G1 X69.256 Y88.966 E1.76431
G1 X69.142 Y88.691 E1.77623
G1 F1200.000 E0.77623
G92 E0
G1 X149.896 Y87.772 F7200.000
G1 F1200.000 E1.00000
G1 X149.981 Y87.122 F1800.000 E1.02621
G1 X150.232 Y86.516 E1.05243
G1 X150.631 Y85.997 E1.07864
G1 X151.151 Y85.598 E1.10485
G1 X151.756 Y85.347 E1.13106
G1 X152.406 Y85.261 E1.15727
G1 X153.056 Y85.347 E1.18348
G1 X153.661 Y85.598 E1.20970
G1 X154.181 Y85.997 E1.23591
G1 X154.580 Y86.516 E1.26212
G1 X154.831 Y87.122 E1.28833
G1 X154.916 Y87.772 E1.31455
G1 X154.831 Y88.421 E1.34076
G1 X154.580 Y89.027 E1.36697
G1 X154.181 Y89.547 E1.39318
G1 X153.661 Y89.946 E1.41939
G1 X153.422 Y90.044 E1.42974
G1 X153.422 Y90.044 E1.42974
G1 X153.056 Y90.196 E1.44561
G1 X152.406 Y90.282 E1.47182
G1 X151.759 Y90.197 E1.49793
G1 X151.759 Y90.197 E1.49793
G1 X151.714 Y90.191 E1.49975
G1 X151.714 Y90.179 E1.50023
G1 X151.151 Y89.946 E1.52460
G1 X150.631 Y89.547 E1.55081
G1 X150.232 Y89.027 E1.57702
G1 X149.981 Y88.421 E1.60323
G1 X149.904 Y87.830 E1.62708
G1 X150.276 Y87.772 F7200.000
G1 X150.349 Y87.220 F1800.000 E1.64932
G1 X150.561 Y86.707 E1.67156
G1 X150.900 Y86.265 E1.69381
G1 X151.341 Y85.927 E1.71605
G1 X151.855 Y85.714 E1.73829
G1 X152.406 Y85.642 E1.76053
G1 X152.957 Y85.714 E1.78277
G1 X153.471 Y85.927 E1.80501
G1 X153.912 Y86.265 E1.82725
G1 X154.251 Y86.707 E1.84950
G1 X154.464 Y87.220 E1.87174
G1 X154.536 Y87.772 E1.89398
G1 X154.464 Y88.323 E1.91622
G1 X154.251 Y88.837 E1.93847
G1 X153.912 Y89.278 E1.96071
G1 X153.471 Y89.616 E1.98295
G1 X152.957 Y89.829 E2.00519
G1 X152.406 Y89.902 E2.02743
G1 X152.091 Y89.860 E2.04016
G1 X152.091 Y89.860 E2.04016
G1 X151.855 Y89.829 E2.04967
G1 X151.341 Y89.616 E2.07192
G1 X150.900 Y89.278 E2.09416
G1 X150.561 Y88.837 E2.11640
G1 X150.349 Y88.323 E2.13864
G1 X150.284 Y87.830 E2.15852
G1 F1200.000 E1.15852
G92 E0
G1 X126.377 Y88.282 F7200.000
G1 F1200.000 E1.00000
G1 X126.317 Y88.735 F1800.000 E1.01826
G1 X126.143 Y89.156 E1.03651
G1 X125.865 Y89.518 E1.05477
G1 X125.503 Y89.796 E1.07302
G1 X125.081 Y89.971 E1.09128
G1 X124.629 Y90.030 E1.10953
G1 X124.176 Y89.971 E1.12779
G1 X123.755 Y89.796 E1.14604
G1 X123.393 Y89.518 E1.16430
G1 X123.115 Y89.156 E1.18255
G1 X122.940 Y88.735 E1.20081
G1 X122.880 Y88.282 E1.21906
G1 X122.940 Y87.830 E1.23732
G1 X123.115 Y87.408 E1.25557
G1 X123.393 Y87.046 E1.27383
G1 X123.755 Y86.768 E1.29208
G1 X124.176 Y86.593 E1.31034
G1 X124.629 Y86.534 E1.32859
G1 X125.081 Y86.593 E1.34685
G1 X125.503 Y86.768 E1.36510
G1 X125.865 Y87.046 E1.38336
G1 X126.143 Y87.408 E1.40161
G1 X126.317 Y87.830 E1.41987
G1 X126.369 Y88.223 E1.43576
G1 X125.997 Y88.282 F7200.000
G1 X125.950 Y88.636 F1800.000 E1.45004
G1 X125.813 Y88.966 E1.46433
G1 X125.596 Y89.249 E1.47861
G1 X125.313 Y89.467 E1.49290
G1 X124.983 Y89.604 E1.50718
G1 X124.629 Y89.650 E1.52147
G1 X124.275 Y89.604 E1.53575
G1 X123.945 Y89.467 E1.55004
G1 X123.661 Y89.249 E1.56432
G1 X123.444 Y88.966 E1.57861
G1 X123.307 Y88.636 E1.59289
G1 X123.261 Y88.282 E1.60718
G1 X123.307 Y87.928 E1.62146
G1 X123.444 Y87.598 E1.63575
G1 X123.661 Y87.315 E1.65003
G1 X123.945 Y87.097 E1.66432
G1 X124.275 Y86.961 E1.67860
G1 X124.629 Y86.914 E1.69289
G1 X124.983 Y86.961 E1.70717
G1 X125.313 Y87.097 E1.72146
G1 X125.596 Y87.315 E1.73574
G1 X125.813 Y87.598 E1.75003
G1 X125.950 Y87.928 E1.76431
G1 X125.989 Y88.223 E1.77623
G1 F1200.000 E0.77623
G92 E0
G1 X109.084 Y110.972 F7200.000
G1 F1200.000 E1.00000
G1 X109.446 Y111.250 F1800.000 E1.01826
G1 X109.724 Y111.612 E1.03651
G1 X109.899 Y112.033 E1.05476
G1 X109.958 Y112.486 E1.07302
G1 X109.899 Y112.938 E1.09128
G1 X109.724 Y113.360 E1.10953
G1 X109.446 Y113.722 E1.12779
G1 X109.084 Y114.000 E1.14604
G1 X108.663 Y114.174 E1.16430
G1 X108.210 Y114.234 E1.18255
G1 X107.758 Y114.174 E1.20081
G1 X107.336 Y114.000 E1.21906
G1 X106.974 Y113.722 E1.23732
G1 X106.696 Y113.360 E1.25557
G1 X106.521 Y112.938 E1.27383
G1 X106.462 Y112.486 E1.29208
G1 X106.521 Y112.033 E1.31034
G1 X106.696 Y111.612 E1.32859
G1 X106.974 Y111.250 E1.34685
G1 X107.336 Y110.972 E1.36510
G1 X107.758 Y110.797 E1.38336
G1 X108.210 Y110.738 E1.40161
G1 X108.663 Y110.797 E1.41987
G1 X109.030 Y110.949 E1.43576
G1 X108.894 Y111.301 F7200.000
G1 X109.177 Y111.518 F1800.000 E1.45004
G1 X109.395 Y111.802 E1.46433
G1 X109.532 Y112.132 E1.47861
G1 X109.578 Y112.486 E1.49290
G1 X109.532 Y112.840 E1.50718
G1 X109.395 Y113.170 E1.52147
G1 X109.177 Y113.453 E1.53575
G1 X108.894 Y113.671 E1.55004
G1 X108.564 Y113.807 E1.56432
G1 X108.210 Y113.854 E1.57861
G1 X107.856 Y113.807 E1.59289
G1 X107.526 Y113.671 E1.60718
G1 X107.243 Y113.453 E1.62146
G1 X107.025 Y113.170 E1.63575
G1 X106.889 Y112.840 E1.65003
G1 X106.842 Y112.486 E1.66432
G1 X106.889 Y112.132 E1.67860
G1 X107.025 Y111.802 E1.69289
G1 X107.243 Y111.518 E1.70717
G1 X107.526 Y111.301 E1.72146
G1 X107.856 Y111.164 E1.73574
G1 X108.210 Y111.118 E1.75003
G1 X108.564 Y111.164 E1.76431
G1 X108.840 Y111.278 E1.77623
G1 F1200.000 E0.77623
G92 E0
G1 X108.888 Y115.748 F7200.000
G1 F1200.000 E1.00000
G1 X108.024 Y115.812 F1800.000 E1.03467
G1 X107.172 Y115.652 E1.06934
G1 X106.391 Y115.277 E1.10401
G1 X105.732 Y114.713 E1.13868
G1 X105.242 Y113.999 E1.17335
G1 X104.952 Y113.182 E1.20802
G1 X104.883 Y112.318 E1.24269
G1 X105.038 Y111.466 E1.27736
G1 X105.420 Y110.659 E1.31304
G1 X120.670 Y88.223 E2.39820
G1 X120.451 Y87.808 E2.41696
G1 X74.608 Y87.808 E4.25070
G1 X74.405 Y89.344 E4.31268
G1 X73.995 Y90.334 E4.35555
G1 X73.343 Y91.185 E4.39841
G1 X72.493 Y91.837 E4.44127
G1 X71.503 Y92.247 E4.48413
G1 X70.440 Y92.387 E4.52700
G1 X69.378 Y92.247 E4.56986
G1 X68.388 Y91.837 E4.61273
G1 X67.538 Y91.185 E4.65559
G1 X66.885 Y90.334 E4.69845
G1 X66.476 Y89.345 E4.74130
G1 X66.273 Y87.808 E4.80330
G1 X65.456 Y87.808 E4.83598
G1 X51.254 Y96.966 E5.51192
G1 X51.030 Y98.802 E5.58590
G1 X51.022 Y98.831 E5.58712
G1 X50.468 Y100.281 E5.64920
G1 X50.452 Y100.307 E5.65042
G1 X49.565 Y101.581 E5.71250
G1 X49.544 Y101.602 E5.71373
G1 X48.375 Y102.624 E5.77580
G1 X48.349 Y102.640 E5.77703
G1 X46.969 Y103.349 E5.83910
G1 X45.429 Y103.714 E5.90240
G1 X45.399 Y103.715 E5.90361
G1 X43.847 Y103.696 E5.96569
G1 X42.316 Y103.297 E6.02898
G1 X41.121 Y102.646 E6.08339
G1 X41.121 Y84.184 E6.82187
G1 X157.807 Y84.184 E11.48929
G1 X158.463 Y85.393 E11.54431
G1 X158.861 Y86.941 E11.60822
G1 X158.869 Y88.538 E11.67212
G1 X158.487 Y90.090 E11.73603
G1 X157.776 Y91.435 E11.79691
G1 X156.696 Y92.638 E11.86156
G1 X156.662 Y92.694 E11.86420
G1 X155.370 Y93.565 E11.92653
G1 X155.343 Y93.579 E11.92773
G1 X153.869 Y94.112 E11.99045
G1 X153.840 Y94.120 E11.99165
G1 X152.280 Y94.278 E12.05437
G1 X152.250 Y94.278 E12.05557
G1 X150.698 Y94.051 E12.11829
G1 X150.669 Y94.044 E12.11949
G1 X149.220 Y93.446 E12.18220
G1 X149.194 Y93.431 E12.18340
G1 X147.933 Y92.499 E12.24612
G1 X147.912 Y92.478 E12.24732
G1 X146.916 Y91.267 E12.31004
G1 X146.901 Y91.241 E12.31124
G1 X146.230 Y89.824 E12.37396
G1 X146.221 Y89.795 E12.37516
G1 X145.827 Y87.808 E12.45619
G1 X128.729 Y87.808 E13.14011
G1 X128.663 Y88.983 E13.18718
G1 X128.394 Y89.891 E13.22508
G1 X127.923 Y90.714 E13.26298
G1 X127.276 Y91.406 E13.30089
G1 X126.487 Y91.931 E13.33880
G1 X125.599 Y92.261 E13.37670
G1 X124.658 Y92.377 E13.41462
G1 X123.374 Y92.237 E13.46629
G1 X111.099 Y110.725 E14.35399
G1 X111.476 Y111.825 E14.40050
G1 X111.536 Y112.690 E14.43517
G1 X111.370 Y113.541 E14.46984
G1 X110.991 Y114.320 E14.50451
G1 X110.424 Y114.976 E14.53918
G1 X109.707 Y115.462 E14.57385
G1 X108.944 Y115.728 E14.60615
G1 X108.966 Y116.120 F7200.000
G1 X108.003 Y116.192 F1800.000 E14.64478
G1 X107.054 Y116.013 E14.68340
G1 X106.183 Y115.596 E14.72203
G1 X105.450 Y114.968 E14.76065
G1 X104.903 Y114.172 E14.79928
G1 X104.580 Y113.262 E14.83790
G1 X104.503 Y112.299 E14.87653
G1 X104.676 Y111.349 E14.91516
G1 X105.091 Y110.471 E14.95399
G1 X120.231 Y88.198 E16.03124
G1 X120.224 Y88.185 E16.03185
G1 X74.938 Y88.185 E17.84328
G1 X74.773 Y89.443 E17.89403
G1 X74.324 Y90.525 E17.94087
G1 X73.612 Y91.453 E17.98770
G1 X72.683 Y92.166 E18.03453
G1 X71.601 Y92.614 E18.08136
G1 X70.440 Y92.767 E18.12820
G1 X69.279 Y92.614 E18.17503
G1 X68.198 Y92.166 E18.22187
G1 X67.269 Y91.453 E18.26870
G1 X66.556 Y90.525 E18.31553
G1 X66.108 Y89.443 E18.36236
G1 X65.943 Y88.185 E18.41311
G1 X65.567 Y88.185 E18.42813
G1 X51.607 Y97.187 E19.09257
G1 X51.401 Y98.873 E19.16051
G1 X51.381 Y98.947 E19.16357
G1 X50.809 Y100.442 E19.22759
G1 X50.772 Y100.509 E19.23066
G1 X49.856 Y101.822 E19.29468
G1 X49.803 Y101.876 E19.29774
G1 X48.598 Y102.930 E19.36177
G1 X48.532 Y102.969 E19.36483
G1 X47.109 Y103.701 E19.42886
G1 X45.477 Y104.090 E19.49594
G1 X45.401 Y104.092 E19.49900
G1 X43.800 Y104.073 E19.56302
G1 X42.177 Y103.650 E19.63011
G1 X40.744 Y102.870 E19.69537
G1 X40.744 Y83.807 E20.45788
G1 X158.031 Y83.807 E25.14935
G1 X158.817 Y85.255 E25.21525
G1 X159.237 Y86.895 E25.28296
G1 X159.245 Y88.588 E25.35068
G1 X158.839 Y90.232 E25.41840
G1 X158.088 Y91.653 E25.48269
G1 X157.001 Y92.862 E25.54775
G1 X156.957 Y92.935 E25.55116
G1 X156.909 Y92.982 E25.55383
G1 X155.568 Y93.885 E25.61850
G1 X155.502 Y93.923 E25.62155
G1 X153.981 Y94.473 E25.68622
G1 X153.907 Y94.492 E25.68928
G1 X152.299 Y94.655 E25.75394
G1 X152.223 Y94.655 E25.75700
G1 X150.623 Y94.421 E25.82166
G1 X150.549 Y94.402 E25.82472
