; generated by Slic3r 0.8.4 on 2012-09-01 at 12:07:48

; layer_height = .25
; perimeters = 2
; solid_layers = 2
; fill_density = .25
; nozzle_diameter = .35
; filament_diameter = 1.75
; extrusion_multiplier = 1
; perimeter_speed = 30
; infill_speed = 60
; travel_speed = 120
; scale = 1
; single wall width = 0.39mm

M190 S80 ; wait for bed temperature to be reached
M104 S185 ; set temperature

M109 S185 ; wait for temperature to be reached
G90 ; use absolute coordinates
G21 ; set units to millimeters
G92 E0 ; reset extrusion distance
M82 ; use absolute distances for extrusion
G1 Z0.250 F7200.000
G1 X64.517 Y73.689
G1 F1200.000 E1.00000
G1 X64.707 Y73.429 F1800.000 E1.01288
G1 X65.127 Y72.959 E1.03809
G1 X66.697 Y71.619 E1.12066
G1 X67.467 Y71.109 E1.15760
G1 X69.007 Y70.359 E1.22612
G1 X69.307 Y70.239 E1.23904
G1 X70.267 Y69.969 E1.27893
G1 X71.677 Y69.699 E1.33636
G1 X72.167 Y69.639 E1.35610
G1 X72.667 Y69.619 E1.37612
G1 X128.007 Y69.659 E3.58972
G1 X128.507 Y69.719 E3.60986
G1 X130.157 Y70.059 E3.67725
G1 X130.767 Y70.249 E3.70281
G1 X131.057 Y70.359 E3.71521
G1 X132.907 Y71.269 E3.79768
G1 X133.427 Y71.629 E3.82298
G1 X134.767 Y72.749 E3.89284
G1 X135.227 Y73.219 E3.91914
G1 X135.627 Y73.719 E3.94475
G1 X136.447 Y74.889 E4.00190
G1 X136.757 Y75.419 E4.02646
G1 X137.537 Y77.319 E4.10862
G1 X137.717 Y77.949 E4.13483
G1 X138.017 Y80.229 E4.22681
G1 X138.557 Y89.439 E4.59585
G1 X138.547 Y114.879 E5.61345
G1 X138.497 Y115.429 E5.63554
G1 X138.407 Y115.969 E5.65743
G1 X138.177 Y116.769 E5.69073
G1 X137.967 Y117.279 E5.71279
G1 X137.567 Y118.009 E5.74609
G1 X137.417 Y118.239 E5.75707
G1 X129.087 Y128.269 E6.27859
G1 X128.897 Y128.469 E6.28963
G1 X128.307 Y128.999 E6.32135
G1 X128.097 Y129.159 E6.33191
G1 X127.647 Y129.449 E6.35333
G1 X127.187 Y129.709 E6.37446
G1 X126.697 Y129.919 E6.39579
G1 X126.197 Y130.099 E6.41704
G1 X125.677 Y130.229 E6.43848
G1 X125.157 Y130.319 E6.45959
G1 X124.357 Y130.369 E6.49165
G1 X78.787 Y130.369 E8.31445
G1 X77.947 Y130.309 E8.34814
G1 X71.457 Y129.449 E8.61001
G1 X70.517 Y129.249 E8.64845
G1 X69.187 Y128.859 E8.70389
G1 X68.617 Y128.629 E8.72848
G1 X66.867 Y127.639 E8.80890
G1 X66.357 Y127.269 E8.83410
G1 X65.887 Y126.859 E8.85905
G1 X64.687 Y125.649 E8.92722
G1 X64.307 Y125.149 E8.95234
G1 X63.417 Y123.699 E9.02039
G1 X63.267 Y123.409 E9.03345
G1 X63.017 Y122.819 E9.05908
G1 X62.597 Y121.489 E9.11487
G1 X62.367 Y120.479 E9.15631
G1 X61.487 Y114.149 E9.41194
G1 X61.427 Y113.269 E9.44722
G1 X61.447 Y88.959 E10.41962
G1 X62.177 Y79.459 E10.80075
G1 X62.357 Y78.209 E10.85126
G1 X62.417 Y77.909 E10.86350
G1 X62.587 Y77.329 E10.88767
G1 X63.217 Y75.699 E10.95758
G1 X63.357 Y75.409 E10.97046
G1 X63.687 Y74.849 E10.99646
G1 X64.482 Y73.737 E11.05114
G1 F1200.000 E10.05114
G92 E0
G1 X125.415 Y80.481 F7200.000
G1 F1200.000 E1.00000
G1 X125.505 Y79.795 F1800.000 E1.02768
G1 X125.571 Y79.795 E1.03031
G1 X125.649 Y79.607 E1.03846
G1 X125.927 Y79.245 E1.05672
G1 X126.289 Y78.967 E1.07497
G1 X126.710 Y78.793 E1.09323
G1 X127.163 Y78.733 E1.11148
G1 X127.615 Y78.793 E1.12974
G1 X128.037 Y78.967 E1.14799
G1 X128.399 Y79.245 E1.16625
G1 X128.677 Y79.607 E1.18450
G1 X128.851 Y80.029 E1.20276
G1 X128.911 Y80.481 E1.22101
G1 X128.821 Y81.167 E1.24869
G1 X128.755 Y81.167 E1.25133
G1 X128.677 Y81.355 E1.25947
G1 X128.399 Y81.718 E1.27773
G1 X128.037 Y81.995 E1.29598
G1 X127.615 Y82.170 E1.31424
G1 X127.163 Y82.230 E1.33249
G1 X126.477 Y82.139 E1.36017
G1 X126.477 Y82.073 E1.36281
G1 X126.289 Y81.995 E1.37095
G1 X125.927 Y81.718 E1.38921
G1 X125.649 Y81.355 E1.40746
G1 X125.474 Y80.934 E1.42572
G1 X125.422 Y80.540 E1.44161
G1 X125.795 Y80.481 F7200.000
G1 X125.835 Y80.172 F1800.000 E1.45407
G1 X125.835 Y80.172 E1.45407
G1 X125.841 Y80.127 E1.45589
G1 X125.978 Y79.797 E1.47018
G1 X126.195 Y79.514 E1.48446
G1 X126.479 Y79.297 E1.49875
G1 X126.809 Y79.160 E1.51303
G1 X127.163 Y79.113 E1.52732
G1 X127.517 Y79.160 E1.54160
G1 X127.847 Y79.297 E1.55589
G1 X128.130 Y79.514 E1.57017
G1 X128.347 Y79.797 E1.58446
G1 X128.484 Y80.127 E1.59874
G1 X128.531 Y80.481 E1.61303
G1 X128.490 Y80.790 E1.62549
G1 X128.490 Y80.790 E1.62549
G1 X128.484 Y80.835 E1.62731
G1 X128.347 Y81.165 E1.64160
G1 X128.130 Y81.449 E1.65588
G1 X127.847 Y81.666 E1.67017
G1 X127.517 Y81.803 E1.68445
G1 X127.163 Y81.849 E1.69874
G1 X126.854 Y81.809 E1.71120
G1 X126.854 Y81.809 E1.71120
G1 X126.809 Y81.803 E1.71302
G1 X126.479 Y81.666 E1.72731
G1 X126.195 Y81.449 E1.74159
G1 X125.978 Y81.165 E1.75588
G1 X125.841 Y80.835 E1.77016
G1 X125.802 Y80.540 E1.78208
G1 F1200.000 E0.78208
G92 E0
G1 X127.163 Y92.767 F7200.000
G1 F1200.000 E1.00000
G1 X127.615 Y92.826 F1800.000 E1.01825
G1 X128.037 Y93.001 E1.03651
G1 X128.399 Y93.279 E1.05477
G1 X128.677 Y93.641 E1.07302
G1 X128.851 Y94.062 E1.09127
G1 X128.911 Y94.515 E1.10953
G1 X128.851 Y94.967 E1.12779
G1 X128.677 Y95.389 E1.14604
G1 X128.399 Y95.751 E1.16430
G1 X128.037 Y96.029 E1.18255
G1 X127.615 Y96.204 E1.20081
G1 X127.163 Y96.263 E1.21906
G1 X126.710 Y96.204 E1.23732
G1 X126.289 Y96.029 E1.25557
G1 X125.927 Y95.751 E1.27383
G1 X125.649 Y95.389 E1.29208
G1 X125.474 Y94.967 E1.31034
G1 X125.415 Y94.515 E1.32859
G1 X125.474 Y94.062 E1.34685
G1 X125.649 Y93.641 E1.36510
G1 X125.927 Y93.279 E1.38336
G1 X126.289 Y93.001 E1.40161
G1 X126.710 Y92.826 E1.41987
G1 X127.104 Y92.774 E1.43576
G1 X127.163 Y93.147 F7200.000
G1 X127.517 Y93.193 F1800.000 E1.45004
G1 X127.847 Y93.330 E1.46433
G1 X128.130 Y93.548 E1.47861
G1 X128.347 Y93.831 E1.49290
G1 X128.484 Y94.161 E1.50718
G1 X128.531 Y94.515 E1.52147
G1 X128.484 Y94.869 E1.53575
G1 X128.347 Y95.199 E1.55004
G1 X128.130 Y95.482 E1.56432
G1 X127.847 Y95.700 E1.57861
G1 X127.517 Y95.836 E1.59289
G1 X127.163 Y95.883 E1.60718
G1 X126.809 Y95.836 E1.62146
G1 X126.479 Y95.700 E1.63575
G1 X126.195 Y95.482 E1.65003
G1 X125.978 Y95.199 E1.66432
G1 X125.841 Y94.869 E1.67860
G1 X125.795 Y94.515 E1.69289
G1 X125.841 Y94.161 E1.70717
G1 X125.978 Y93.831 E1.72146
G1 X126.195 Y93.548 E1.73574
G1 X126.479 Y93.330 E1.75003
G1 X126.809 Y93.193 E1.76431
G1 X127.104 Y93.155 E1.77623
G1 F1200.000 E0.77623
G92 E0
G1 X112.258 Y103.811 F7200.000
G1 F1200.000 E1.00000
G1 X112.433 Y104.233 F1800.000 E1.01826
G1 X112.493 Y104.686 E1.03653
G1 X112.492 Y104.686 E1.03654
G1 X112.507 Y104.794 E1.04091
G1 X112.478 Y104.794 E1.04206
G1 X112.433 Y105.138 E1.05591
G1 X112.295 Y105.471 E1.07037
G1 X112.295 Y105.471 E1.07037
G1 X112.258 Y105.559 E1.07417
G1 X111.980 Y105.921 E1.09242
G1 X111.618 Y106.199 E1.11068
G1 X111.197 Y106.374 E1.12893
G1 X110.412 Y106.477 E1.16058
G1 X110.412 Y106.424 E1.16271
G1 X109.870 Y106.199 E1.18619
G1 X109.508 Y105.921 E1.20444
G1 X109.230 Y105.559 E1.22270
G1 X109.056 Y105.138 E1.24095
G1 X108.996 Y104.684 E1.25923
G1 X108.996 Y104.684 E1.25923
G1 X108.982 Y104.576 E1.26360
G1 X109.010 Y104.576 E1.26475
G1 X109.056 Y104.233 E1.27861
G1 X109.194 Y103.899 E1.29306
G1 X109.194 Y103.899 E1.29306
G1 X109.230 Y103.811 E1.29687
G1 X109.508 Y103.449 E1.31512
G1 X109.870 Y103.171 E1.33338
G1 X110.292 Y102.996 E1.35163
G1 X111.076 Y102.893 E1.38328
G1 X111.076 Y102.946 E1.38541
G1 X111.618 Y103.171 E1.40888
G1 X111.980 Y103.449 E1.42714
G1 X112.222 Y103.764 E1.44303
G1 X111.929 Y104.001 F7200.000
G1 X112.066 Y104.331 F1800.000 E1.45731
G1 X112.077 Y104.417 E1.46079
G1 X112.077 Y104.417 E1.46079
G1 X112.112 Y104.685 E1.47160
G1 X112.066 Y105.039 E1.48588
G1 X111.929 Y105.369 E1.50017
G1 X111.712 Y105.652 E1.51445
G1 X111.659 Y105.693 E1.51711
G1 X111.659 Y105.693 E1.51711
G1 X111.428 Y105.870 E1.52874
G1 X111.098 Y106.006 E1.54302
G1 X110.789 Y106.047 E1.55549
G1 X110.789 Y106.047 E1.55549
G1 X110.744 Y106.053 E1.55731
G1 X110.390 Y106.006 E1.57159
G1 X110.060 Y105.870 E1.58588
G1 X109.777 Y105.652 E1.60016
G1 X109.559 Y105.369 E1.61445
G1 X109.423 Y105.039 E1.62873
G1 X109.411 Y104.953 E1.63221
G1 X109.411 Y104.953 E1.63221
G1 X109.376 Y104.685 E1.64302
G1 X109.423 Y104.331 E1.65731
G1 X109.559 Y104.001 E1.67159
G1 X109.777 Y103.718 E1.68588
G1 X109.830 Y103.677 E1.68853
G1 X109.830 Y103.677 E1.68853
G1 X110.060 Y103.500 E1.70016
G1 X110.390 Y103.364 E1.71445
G1 X110.699 Y103.323 E1.72691
G1 X110.699 Y103.323 E1.72691
G1 X110.744 Y103.317 E1.72873
G1 X111.098 Y103.364 E1.74302
G1 X111.428 Y103.500 E1.75730
G1 X111.712 Y103.718 E1.77159
G1 X111.893 Y103.954 E1.78350
G1 F1200.000 E0.78350
G92 E0
G1 X74.488 Y81.355 F7200.000
G1 F1200.000 E1.00000
G1 X74.211 Y81.718 F1800.000 E1.01826
G1 X73.849 Y81.995 E1.03651
G1 X73.427 Y82.170 E1.05477
G1 X72.974 Y82.230 E1.07302
G1 X72.616 Y82.182 E1.08747
G1 X72.616 Y82.182 E1.08747
G1 X72.522 Y82.170 E1.09128
G1 X72.100 Y81.995 E1.10953
G1 X71.738 Y81.718 E1.12779
G1 X71.460 Y81.355 E1.14604
G1 X71.286 Y80.934 E1.16430
G1 X71.226 Y80.481 E1.18255
G1 X71.316 Y79.795 E1.21023
G1 X71.382 Y79.795 E1.21287
G1 X71.460 Y79.607 E1.22101
G1 X71.738 Y79.245 E1.23927
G1 X72.100 Y78.967 E1.25752
G1 X72.522 Y78.793 E1.27578
G1 X72.987 Y78.732 E1.29453
G1 X72.987 Y78.732 E1.29453
G1 X73.083 Y78.719 E1.29843
G1 X73.083 Y78.747 E1.29958
G1 X73.427 Y78.793 E1.31343
G1 X73.849 Y78.967 E1.33169
G1 X74.211 Y79.245 E1.34994
G1 X74.488 Y79.607 E1.36820
G1 X74.663 Y80.029 E1.38646
G1 X74.723 Y80.481 E1.40471
G1 X74.675 Y80.840 E1.41916
G1 X74.675 Y80.840 E1.41916
G1 X74.663 Y80.934 E1.42297
G1 X74.511 Y81.301 E1.43885
G1 X74.159 Y81.165 F7200.000
G1 X73.942 Y81.449 F1800.000 E1.45314
G1 X73.658 Y81.666 E1.46742
G1 X73.328 Y81.803 E1.48171
G1 X72.974 Y81.849 E1.49599
G1 X72.620 Y81.803 E1.51028
G1 X72.290 Y81.666 E1.52456
G1 X72.007 Y81.449 E1.53885
G1 X71.790 Y81.165 E1.55313
G1 X71.653 Y80.835 E1.56742
G1 X71.606 Y80.481 E1.58170
G1 X71.647 Y80.172 E1.59417
G1 X71.647 Y80.172 E1.59417
G1 X71.653 Y80.127 E1.59599
G1 X71.790 Y79.797 E1.61027
G1 X72.007 Y79.514 E1.62456
G1 X72.290 Y79.297 E1.63884
G1 X72.620 Y79.160 E1.65313
G1 X72.706 Y79.149 E1.65660
G1 X72.706 Y79.149 E1.65660
G1 X72.974 Y79.113 E1.66741
G1 X73.328 Y79.160 E1.68170
G1 X73.658 Y79.297 E1.69598
G1 X73.829 Y79.427 E1.70456
G1 X73.829 Y79.427 E1.70456
G1 X73.942 Y79.514 E1.71027
G1 X74.159 Y79.797 E1.72455
G1 X74.296 Y80.127 E1.73884
G1 X74.342 Y80.481 E1.75312
G1 X74.296 Y80.835 E1.76741
G1 X74.182 Y81.111 E1.77933
G1 F1200.000 E0.77933
G92 E0
G1 X72.974 Y117.087 F7200.000
G1 F1200.000 E1.00000
G1 X73.427 Y117.147 F1800.000 E1.01825
G1 X73.849 Y117.321 E1.03651
G1 X74.211 Y117.599 E1.05476
G1 X74.488 Y117.961 E1.07302
G1 X74.663 Y118.383 E1.09127
G1 X74.723 Y118.835 E1.10953
G1 X74.663 Y119.288 E1.12778
G1 X74.488 Y119.709 E1.14604
G1 X74.211 Y120.072 E1.16429
G1 X73.849 Y120.349 E1.18255
G1 X73.427 Y120.524 E1.20080
G1 X72.974 Y120.584 E1.21906
G1 X72.522 Y120.524 E1.23732
G1 X72.100 Y120.349 E1.25557
G1 X71.738 Y120.072 E1.27383
G1 X71.460 Y119.709 E1.29208
G1 X71.286 Y119.288 E1.31034
G1 X71.226 Y118.835 E1.32859
G1 X71.286 Y118.383 E1.34685
G1 X71.460 Y117.961 E1.36510
G1 X71.738 Y117.599 E1.38336
G1 X72.100 Y117.321 E1.40161
G1 X72.522 Y117.147 E1.41987
G1 X72.916 Y117.095 E1.43576
G1 X72.974 Y117.467 F7200.000
G1 X73.328 Y117.514 F1800.000 E1.45004
G1 X73.658 Y117.651 E1.46432
G1 X73.942 Y117.868 E1.47861
G1 X74.159 Y118.151 E1.49289
G1 X74.296 Y118.481 E1.50718
G1 X74.342 Y118.835 E1.52147
G1 X74.296 Y119.189 E1.53575
G1 X74.159 Y119.519 E1.55004
G1 X73.942 Y119.803 E1.56432
G1 X73.658 Y120.020 E1.57861
G1 X73.328 Y120.157 E1.59289
G1 X72.974 Y120.203 E1.60718
G1 X72.620 Y120.157 E1.62146
G1 X72.290 Y120.020 E1.63575
G1 X72.007 Y119.803 E1.65003
G1 X71.790 Y119.519 E1.66431
G1 X71.653 Y119.189 E1.67860
G1 X71.606 Y118.835 E1.69289
G1 X71.653 Y118.481 E1.70717
G1 X71.790 Y118.151 E1.72146
G1 X72.007 Y117.868 E1.73574
G1 X72.290 Y117.651 E1.75003
G1 X72.620 Y117.514 E1.76431
G1 X72.916 Y117.475 E1.77623
G1 F1200.000 E0.77623
G92 E0
G1 X124.187 Y123.617 F7200.000
G1 F1200.000 E1.00000
G1 X78.934 Y123.617 F1800.000 E2.81014
G1 X76.272 Y121.194 E2.95410
G1 X75.167 Y122.142 E3.01235
G1 X74.291 Y122.578 E3.05147
G1 X73.335 Y122.787 E3.09059
G1 X72.358 Y122.755 E3.12972
G1 X71.418 Y122.485 E3.16884
G1 X70.572 Y121.993 E3.20796
G1 X69.873 Y121.309 E3.24709
G1 X69.362 Y120.475 E3.28621
G1 X69.070 Y119.542 E3.32533
G1 X69.016 Y118.565 E3.36446
G1 X69.203 Y117.605 E3.40358
G1 X69.618 Y116.720 E3.44270
G1 X70.541 Y115.593 E3.50095
G1 X68.191 Y113.126 E3.63724
G1 X68.191 Y89.463 E4.58376
G1 X68.997 Y79.464 E4.98500
G1 X69.373 Y78.511 E5.02600
G1 X69.974 Y77.680 E5.06700
G1 X70.761 Y77.024 E5.10800
G1 X71.687 Y76.584 E5.14900
G1 X72.706 Y76.383 E5.19054
G1 X73.243 Y76.383 E5.21202
G1 X74.262 Y76.584 E5.25356
G1 X75.187 Y77.024 E5.29456
G1 X75.975 Y77.680 E5.33556
G1 X76.575 Y78.511 E5.37656
G1 X76.951 Y79.464 E5.41756
G1 X77.107 Y80.702 E5.46744
G1 X77.485 Y81.080 E5.48882
G1 X77.485 Y81.080 E5.48882
G1 X85.886 Y89.481 E5.96407
G1 X85.642 Y89.787 E5.97974
G1 X85.642 Y89.787 E5.97974
G1 X75.736 Y102.235 E6.61609
G1 X75.736 Y112.629 E7.03185
G1 X80.609 Y118.621 E7.34077
G1 X123.063 Y118.621 E9.03895
G1 X126.999 Y113.676 E9.29177
G1 X126.999 Y101.569 E9.77603
G1 X119.512 Y101.569 E10.07552
G1 X113.379 Y106.741 E10.39642
G1 X112.717 Y107.370 E10.43294
G1 X111.984 Y107.778 E10.46649
G1 X111.172 Y107.989 E10.50005
G1 X110.333 Y107.992 E10.53360
G1 X109.554 Y107.793 E10.56578
G1 X109.554 Y107.793 E10.56578
G1 X109.521 Y107.784 E10.56716
G1 X109.095 Y107.550 E10.58660
G1 X109.095 Y107.550 E10.58660
G1 X108.921 Y107.455 E10.59453
G1 X108.894 Y107.482 E10.59607
G1 X108.174 Y106.806 E10.63556
G1 X107.744 Y106.126 E10.66775
G1 X107.744 Y106.126 E10.66775
G1 X107.726 Y106.097 E10.66912
G1 X107.469 Y105.298 E10.70267
G1 X107.420 Y104.461 E10.73622
G1 X107.581 Y103.638 E10.76978
G1 X107.953 Y102.859 E10.80430
G1 X108.019 Y102.762 E10.80899
G1 X108.619 Y102.119 E10.84420
G1 X108.844 Y101.977 E10.85483
G1 X108.844 Y101.977 E10.85484
G1 X109.343 Y101.662 E10.87841
G1 X109.635 Y101.570 E10.89067
G1 X109.635 Y101.570 E10.89067
G1 X110.159 Y101.405 E10.91263
G1 X111.013 Y101.364 E10.94684
G1 X111.850 Y101.542 E10.98105
G1 X112.613 Y101.927 E11.01526
G1 X113.254 Y102.493 E11.04948
G1 X114.159 Y103.847 E11.11462
G1 X126.871 Y84.699 E12.03399
G1 X125.293 Y84.124 E12.10117
G1 X124.453 Y83.550 E12.14189
G1 X123.779 Y82.786 E12.18261
G1 X123.315 Y81.880 E12.22334
G1 X123.089 Y80.888 E12.26406
G1 X123.114 Y79.870 E12.30478
G1 X123.390 Y78.890 E12.34551
G1 X123.900 Y78.009 E12.38623
G1 X124.574 Y77.317 E12.42485
G1 X124.574 Y77.317 E12.42485
G1 X124.611 Y77.280 E12.42695
G1 X125.480 Y76.749 E12.46767
G1 X126.452 Y76.449 E12.50840
G1 X127.469 Y76.399 E12.54912
G1 X128.467 Y76.601 E12.58984
G1 X129.384 Y77.042 E12.63057
G1 X130.164 Y77.697 E12.67129
G1 X130.758 Y78.523 E12.71201
G1 X131.086 Y79.358 E12.74788
G1 X131.116 Y79.358 E12.74909
G1 X131.278 Y80.653 E12.80127
G1 X131.809 Y89.459 E13.15418
G1 X131.809 Y114.470 E14.15461
G1 X131.472 Y114.875 E14.17569
G1 X131.472 Y114.875 E14.17569
G1 X124.225 Y123.571 E14.62848
G1 X124.364 Y123.993 F7200.000
G1 X78.788 Y123.993 F1800.000 E16.45151
G1 X76.264 Y121.697 E16.58799
G1 X75.376 Y122.459 E16.63478
G1 X74.417 Y122.937 E16.67765
G1 X73.370 Y123.165 E16.72052
G1 X72.299 Y123.130 E16.76339
G1 X71.269 Y122.834 E16.80626
G1 X70.342 Y122.295 E16.84913
G1 X69.576 Y121.546 E16.89200
G1 X69.016 Y120.632 E16.93487
G1 X68.697 Y119.609 E16.97774
G1 X68.637 Y118.539 E17.02060
G1 X68.842 Y117.487 E17.06347
G1 X69.260 Y116.596 E17.10287
G1 X69.245 Y116.581 E17.10372
G1 X70.038 Y115.612 E17.15380
G1 X67.814 Y113.277 E17.28281
G1 X67.814 Y89.449 E18.23593
G1 X68.468 Y80.762 E18.58436
G1 X68.468 Y80.762 E18.58436
G1 X68.501 Y80.322 E18.60204
